images/3235284.svg

<?xml version="1.0" encoding="UTF-8"?>
<svg xmlns="http://www.w3.org/2000/svg" xmlns:xlink="http://www.w3.org/1999/xlink" width="300pt" height="300pt" viewBox="0 0 300 300" version="1.1">
<defs>
<g>
<symbol overflow="visible" id="glyph0-0">
<path style="stroke:none;" d="M 0.796875 2.828125 L 0.796875 -11.28125 L 8.796875 -11.28125 L 8.796875 2.828125 Z M 1.703125 1.9375 L 7.90625 1.9375 L 7.90625 -10.390625 L 1.703125 -10.390625 Z M 1.703125 1.9375 "/>
</symbol>
<symbol overflow="visible" id="glyph0-1">
<path style="stroke:none;" d="M 1.578125 -11.671875 L 3.703125 -11.671875 L 8.875 -1.90625 L 8.875 -11.671875 L 10.40625 -11.671875 L 10.40625 0 L 8.28125 0 L 3.109375 -9.765625 L 3.109375 0 L 1.578125 0 Z M 1.578125 -11.671875 "/>
</symbol>
<symbol overflow="visible" id="glyph0-2">
<path style="stroke:none;" d="M 1.578125 -11.671875 L 3.15625 -11.671875 L 3.15625 -6.890625 L 8.890625 -6.890625 L 8.890625 -11.671875 L 10.46875 -11.671875 L 10.46875 0 L 8.890625 0 L 8.890625 -5.5625 L 3.15625 -5.5625 L 3.15625 0 L 1.578125 0 Z M 1.578125 -11.671875 "/>
</symbol>
</g>
</defs>
<g id="surface48205">
<rect x="0" y="0" width="300" height="300" style="fill:rgb(100%,100%,100%);fill-opacity:1;stroke:none;"/>
<path style="fill:none;stroke-width:1.2;stroke-linecap:butt;stroke-linejoin:miter;stroke:rgb(0%,0%,0%);stroke-opacity:1;stroke-miterlimit:10;" d="M 202.308594 228.246094 L 200.148438 190.058594 "/>
<path style="fill:none;stroke-width:1.2;stroke-linecap:butt;stroke-linejoin:miter;stroke:rgb(0%,0%,100%);stroke-opacity:1;stroke-miterlimit:10;" d="M 236.460938 245.472656 L 219.382812 236.859375 "/>
<path style="fill:none;stroke-width:1.2;stroke-linecap:butt;stroke-linejoin:miter;stroke:rgb(0%,0%,0%);stroke-opacity:1;stroke-miterlimit:10;" d="M 219.382812 236.859375 L 202.308594 228.246094 "/>
<path style="fill:none;stroke-width:1.2;stroke-linecap:butt;stroke-linejoin:miter;stroke:rgb(0%,0%,0%);stroke-opacity:1;stroke-miterlimit:10;" d="M 200.148438 190.058594 L 216.144531 179.578125 "/>
<path style="fill:none;stroke-width:1.2;stroke-linecap:butt;stroke-linejoin:miter;stroke:rgb(0%,0%,100%);stroke-opacity:1;stroke-miterlimit:10;" d="M 216.144531 179.578125 L 232.140625 169.09375 "/>
<path style="fill:none;stroke-width:1.2;stroke-linecap:butt;stroke-linejoin:miter;stroke:rgb(0%,0%,100%);stroke-opacity:1;stroke-miterlimit:10;" d="M 232.140625 169.09375 L 249.21875 177.707031 "/>
<path style="fill:none;stroke-width:1.2;stroke-linecap:butt;stroke-linejoin:miter;stroke:rgb(0%,0%,0%);stroke-opacity:1;stroke-miterlimit:10;" d="M 249.21875 177.707031 L 266.292969 186.320312 "/>
<path style="fill:none;stroke-width:1.2;stroke-linecap:butt;stroke-linejoin:miter;stroke:rgb(0%,0%,100%);stroke-opacity:1;stroke-miterlimit:10;" d="M 232.140625 169.09375 L 231.0625 150 "/>
<path style="fill:none;stroke-width:1.2;stroke-linecap:butt;stroke-linejoin:miter;stroke:rgb(0%,0%,0%);stroke-opacity:1;stroke-miterlimit:10;" d="M 231.0625 150 L 229.984375 130.90625 "/>
<path style=" stroke:none;fill-rule:nonzero;fill:rgb(100%,100%,100%);fill-opacity:1;" d="M 226.140625 159.59375 L 238.140625 159.59375 L 238.140625 178.59375 L 226.140625 178.59375 Z M 226.140625 159.59375 "/>
<g style="fill:rgb(0%,0%,100%);fill-opacity:1;">
  <use xlink:href="#glyph0-1" x="226.140625" y="174.445312"/>
</g>
<path style="fill:none;stroke-width:1.2;stroke-linecap:butt;stroke-linejoin:miter;stroke:rgb(0%,0%,0%);stroke-opacity:1;stroke-miterlimit:10;" d="M 266.292969 186.320312 L 268.453125 224.507812 "/>
<path style="fill:none;stroke-width:1.2;stroke-linecap:butt;stroke-linejoin:miter;stroke:rgb(0%,0%,0%);stroke-opacity:1;stroke-miterlimit:10;" d="M 268.453125 224.507812 L 252.457031 234.992188 "/>
<path style="fill:none;stroke-width:1.2;stroke-linecap:butt;stroke-linejoin:miter;stroke:rgb(0%,0%,100%);stroke-opacity:1;stroke-miterlimit:10;" d="M 252.457031 234.992188 L 236.460938 245.472656 "/>
<path style=" stroke:none;fill-rule:nonzero;fill:rgb(100%,100%,100%);fill-opacity:1;" d="M 224.460938 235.972656 L 248.460938 235.972656 L 248.460938 254.972656 L 224.460938 254.972656 Z M 224.460938 235.972656 "/>
<g style="fill:rgb(0%,0%,100%);fill-opacity:1;">
  <use xlink:href="#glyph0-1" x="224.460938" y="250.824219"/>
  <use xlink:href="#glyph0-2" x="236.429688" y="250.824219"/>
</g>
<path style="fill:none;stroke-width:1.2;stroke-linecap:butt;stroke-linejoin:miter;stroke:rgb(0%,0%,0%);stroke-opacity:1;stroke-miterlimit:10;" d="M 229.984375 130.90625 L 245.980469 120.421875 "/>
<path style="fill:none;stroke-width:1.2;stroke-linecap:butt;stroke-linejoin:miter;stroke:rgb(0%,0%,100%);stroke-opacity:1;stroke-miterlimit:10;" d="M 245.980469 120.421875 L 261.976562 109.941406 "/>
<path style="fill:none;stroke-width:1.2;stroke-linecap:butt;stroke-linejoin:miter;stroke:rgb(0%,0%,0%);stroke-opacity:1;stroke-miterlimit:10;" d="M 228.25 121.28125 L 241.046875 112.894531 "/>
<path style="fill:none;stroke-width:1.2;stroke-linecap:butt;stroke-linejoin:miter;stroke:rgb(0%,0%,100%);stroke-opacity:1;stroke-miterlimit:10;" d="M 241.046875 112.894531 L 253.84375 104.511719 "/>
<path style="fill:none;stroke-width:1.2;stroke-linecap:butt;stroke-linejoin:miter;stroke:rgb(0%,0%,0%);stroke-opacity:1;stroke-miterlimit:10;" d="M 195.832031 113.679688 L 229.984375 130.90625 "/>
<path style="fill:none;stroke-width:1.2;stroke-linecap:butt;stroke-linejoin:miter;stroke:rgb(0%,0%,100%);stroke-opacity:1;stroke-miterlimit:10;" d="M 261.976562 109.941406 L 260.898438 90.847656 "/>
<path style="fill:none;stroke-width:1.2;stroke-linecap:butt;stroke-linejoin:miter;stroke:rgb(0%,0%,0%);stroke-opacity:1;stroke-miterlimit:10;" d="M 260.898438 90.847656 L 259.820312 71.753906 "/>
<path style=" stroke:none;fill-rule:nonzero;fill:rgb(100%,100%,100%);fill-opacity:1;" d="M 255.976562 100.441406 L 267.976562 100.441406 L 267.976562 119.441406 L 255.976562 119.441406 Z M 255.976562 100.441406 "/>
<g style="fill:rgb(0%,0%,100%);fill-opacity:1;">
  <use xlink:href="#glyph0-1" x="255.976562" y="115.292969"/>
</g>
<path style="fill:none;stroke-width:1.2;stroke-linecap:butt;stroke-linejoin:miter;stroke:rgb(0%,0%,0%);stroke-opacity:1;stroke-miterlimit:10;" d="M 259.820312 71.753906 L 242.742188 63.140625 "/>
<path style="fill:none;stroke-width:1.2;stroke-linecap:butt;stroke-linejoin:miter;stroke:rgb(0%,0%,100%);stroke-opacity:1;stroke-miterlimit:10;" d="M 242.742188 63.140625 L 225.667969 54.527344 "/>
<path style="fill:none;stroke-width:1.2;stroke-linecap:butt;stroke-linejoin:miter;stroke:rgb(0%,0%,0%);stroke-opacity:1;stroke-miterlimit:10;" d="M 252.351562 78.066406 L 238.691406 71.175781 "/>
<path style="fill:none;stroke-width:1.2;stroke-linecap:butt;stroke-linejoin:miter;stroke:rgb(0%,0%,100%);stroke-opacity:1;stroke-miterlimit:10;" d="M 238.691406 71.175781 L 225.027344 64.285156 "/>
<path style="fill:none;stroke-width:1.2;stroke-linecap:butt;stroke-linejoin:miter;stroke:rgb(0%,0%,100%);stroke-opacity:1;stroke-miterlimit:10;" d="M 225.667969 54.527344 L 209.671875 65.007812 "/>
<path style="fill:none;stroke-width:1.2;stroke-linecap:butt;stroke-linejoin:miter;stroke:rgb(0%,0%,0%);stroke-opacity:1;stroke-miterlimit:10;" d="M 209.671875 65.007812 L 193.671875 75.492188 "/>
<path style=" stroke:none;fill-rule:nonzero;fill:rgb(100%,100%,100%);fill-opacity:1;" d="M 219.667969 45.027344 L 231.667969 45.027344 L 231.667969 64.027344 L 219.667969 64.027344 Z M 219.667969 45.027344 "/>
<g style="fill:rgb(0%,0%,100%);fill-opacity:1;">
  <use xlink:href="#glyph0-1" x="219.667969" y="59.878906"/>
</g>
<path style="fill:none;stroke-width:1.2;stroke-linecap:butt;stroke-linejoin:miter;stroke:rgb(0%,0%,0%);stroke-opacity:1;stroke-miterlimit:10;" d="M 193.671875 75.492188 L 195.832031 113.679688 "/>
<path style="fill:none;stroke-width:1.2;stroke-linecap:butt;stroke-linejoin:miter;stroke:rgb(0%,0%,0%);stroke-opacity:1;stroke-miterlimit:10;" d="M 184.902344 79.816406 L 186.628906 110.371094 "/>
<path style="fill:none;stroke-width:1.2;stroke-linecap:butt;stroke-linejoin:miter;stroke:rgb(0%,0%,0%);stroke-opacity:1;stroke-miterlimit:10;" d="M 159.519531 58.265625 L 193.671875 75.492188 "/>
<path style="fill:none;stroke-width:1.2;stroke-linecap:butt;stroke-linejoin:miter;stroke:rgb(0%,0%,0%);stroke-opacity:1;stroke-miterlimit:10;" d="M 195.832031 113.679688 L 163.839844 134.644531 "/>
<path style="fill:none;stroke-width:1.2;stroke-linecap:butt;stroke-linejoin:miter;stroke:rgb(0%,0%,0%);stroke-opacity:1;stroke-miterlimit:10;" d="M 163.839844 134.644531 L 129.6875 117.417969 "/>
<path style="fill:none;stroke-width:1.2;stroke-linecap:butt;stroke-linejoin:miter;stroke:rgb(0%,0%,0%);stroke-opacity:1;stroke-miterlimit:10;" d="M 164.476562 124.886719 L 137.15625 111.105469 "/>
<path style="fill:none;stroke-width:1.2;stroke-linecap:butt;stroke-linejoin:miter;stroke:rgb(0%,0%,0%);stroke-opacity:1;stroke-miterlimit:10;" d="M 129.6875 117.417969 L 127.527344 79.230469 "/>
<path style="fill:none;stroke-width:1.2;stroke-linecap:butt;stroke-linejoin:miter;stroke:rgb(0%,0%,0%);stroke-opacity:1;stroke-miterlimit:10;" d="M 129.6875 117.417969 L 97.691406 138.382812 "/>
<path style="fill:none;stroke-width:1.2;stroke-linecap:butt;stroke-linejoin:miter;stroke:rgb(0%,0%,0%);stroke-opacity:1;stroke-miterlimit:10;" d="M 127.527344 79.230469 L 159.519531 58.265625 "/>
<path style="fill:none;stroke-width:1.2;stroke-linecap:butt;stroke-linejoin:miter;stroke:rgb(0%,0%,0%);stroke-opacity:1;stroke-miterlimit:10;" d="M 135.660156 84.660156 L 161.253906 67.890625 "/>
<path style="fill:none;stroke-width:1.2;stroke-linecap:butt;stroke-linejoin:miter;stroke:rgb(0%,0%,0%);stroke-opacity:1;stroke-miterlimit:10;" d="M 97.691406 138.382812 L 63.539062 121.15625 "/>
<path style="fill:none;stroke-width:1.2;stroke-linecap:butt;stroke-linejoin:miter;stroke:rgb(0%,0%,0%);stroke-opacity:1;stroke-miterlimit:10;" d="M 90.226562 144.695312 L 62.902344 130.914062 "/>
<path style="fill:none;stroke-width:1.2;stroke-linecap:butt;stroke-linejoin:miter;stroke:rgb(0%,0%,0%);stroke-opacity:1;stroke-miterlimit:10;" d="M 99.851562 176.570312 L 97.691406 138.382812 "/>
<path style="fill:none;stroke-width:1.2;stroke-linecap:butt;stroke-linejoin:miter;stroke:rgb(0%,0%,0%);stroke-opacity:1;stroke-miterlimit:10;" d="M 63.539062 121.15625 L 31.546875 142.121094 "/>
<path style="fill:none;stroke-width:1.2;stroke-linecap:butt;stroke-linejoin:miter;stroke:rgb(0%,0%,0%);stroke-opacity:1;stroke-miterlimit:10;" d="M 31.546875 142.121094 L 33.707031 180.308594 "/>
<path style="fill:none;stroke-width:1.2;stroke-linecap:butt;stroke-linejoin:miter;stroke:rgb(0%,0%,0%);stroke-opacity:1;stroke-miterlimit:10;" d="M 40.75 145.433594 L 42.476562 175.984375 "/>
<path style="fill:none;stroke-width:1.2;stroke-linecap:butt;stroke-linejoin:miter;stroke:rgb(0%,0%,0%);stroke-opacity:1;stroke-miterlimit:10;" d="M 33.707031 180.308594 L 67.859375 197.535156 "/>
<path style="fill:none;stroke-width:1.2;stroke-linecap:butt;stroke-linejoin:miter;stroke:rgb(0%,0%,0%);stroke-opacity:1;stroke-miterlimit:10;" d="M 67.859375 197.535156 L 99.851562 176.570312 "/>
<path style="fill:none;stroke-width:1.2;stroke-linecap:butt;stroke-linejoin:miter;stroke:rgb(0%,0%,0%);stroke-opacity:1;stroke-miterlimit:10;" d="M 66.125 187.910156 L 91.71875 171.140625 "/>
<path style="fill:none;stroke-width:1.2;stroke-linecap:butt;stroke-linejoin:miter;stroke:rgb(0%,0%,0%);stroke-opacity:1;stroke-miterlimit:10;" d="M 99.851562 176.570312 L 134.003906 193.796875 "/>
<path style="fill:none;stroke-width:1.2;stroke-linecap:butt;stroke-linejoin:miter;stroke:rgb(0%,0%,0%);stroke-opacity:1;stroke-miterlimit:10;" d="M 134.003906 193.796875 L 151.078125 202.410156 "/>
<path style="fill:none;stroke-width:1.2;stroke-linecap:butt;stroke-linejoin:miter;stroke:rgb(0%,0%,100%);stroke-opacity:1;stroke-miterlimit:10;" d="M 151.078125 202.410156 L 168.15625 211.023438 "/>
<path style="fill:none;stroke-width:1.2;stroke-linecap:butt;stroke-linejoin:miter;stroke:rgb(0%,0%,0%);stroke-opacity:1;stroke-miterlimit:10;" d="M 133.367188 203.554688 L 147.027344 210.445312 "/>
<path style="fill:none;stroke-width:1.2;stroke-linecap:butt;stroke-linejoin:miter;stroke:rgb(0%,0%,100%);stroke-opacity:1;stroke-miterlimit:10;" d="M 147.027344 210.445312 L 160.6875 217.335938 "/>
<path style="fill:none;stroke-width:1.2;stroke-linecap:butt;stroke-linejoin:miter;stroke:rgb(0%,0%,0%);stroke-opacity:1;stroke-miterlimit:10;" d="M 141.472656 187.484375 L 155.132812 194.375 "/>
<path style="fill:none;stroke-width:1.2;stroke-linecap:butt;stroke-linejoin:miter;stroke:rgb(0%,0%,100%);stroke-opacity:1;stroke-miterlimit:10;" d="M 155.132812 194.375 L 168.792969 201.265625 "/>
<path style=" stroke:none;fill-rule:nonzero;fill:rgb(100%,100%,100%);fill-opacity:1;" d="M 162.15625 201.523438 L 174.15625 201.523438 L 174.15625 220.523438 L 162.15625 220.523438 Z M 162.15625 201.523438 "/>
<g style="fill:rgb(0%,0%,100%);fill-opacity:1;">
  <use xlink:href="#glyph0-1" x="162.15625" y="216.375"/>
</g>
</g>
</svg>

<svg xmlns="http://www.w3.org/2000/svg" xmlns:xlink="http://www.w3.org/1999/xlink" width="300pt" height="300pt" viewBox="0 0 300 300"><defs><symbol overflow="visible"><path d="M.797 2.828v-14.11h8V2.83zm.906-.89h6.203v-12.33H1.703zm0 0"/></symbol><symbol overflow="visible" id="a"><path d="M1.578-11.672h2.125l5.172 9.766v-9.766h1.53V0H8.282L3.11-9.766V0H1.577zm0 0"/></symbol><symbol overflow="visible" id="b"><path d="M1.578-11.672h1.578v4.78H8.89v-4.78h1.58V0H8.89v-5.563H3.157V0H1.578zm0 0"/></symbol></defs><g><path fill="#fff" d="M0 0h300v300H0z"/><path d="M202.31 228.246l-2.162-38.187" stroke-width="1.2" stroke="#000" stroke-miterlimit="10" fill="none"/><path d="M236.46 245.473l-17.077-8.614" stroke-width="1.2" stroke="#00f" stroke-miterlimit="10" fill="none"/><path d="M219.383 236.86l-17.074-8.614M200.148 190.06l15.997-10.482" stroke-width="1.2" stroke="#000" stroke-miterlimit="10" fill="none"/><path d="M216.145 179.578l15.996-10.484M232.14 169.094l17.08 8.613" stroke-width="1.2" stroke="#00f" stroke-miterlimit="10" fill="none"/><path d="M249.22 177.707l17.073 8.613" stroke-width="1.2" stroke="#000" stroke-miterlimit="10" fill="none"/><path d="M232.14 169.094L231.064 150" stroke-width="1.2" stroke="#00f" stroke-miterlimit="10" fill="none"/><path d="M231.063 150l-1.08-19.094" stroke-width="1.2" stroke="#000" stroke-miterlimit="10" fill="none"/><path d="M226.14 159.594h12v19h-12zm0 0" fill="#fff"/><use xlink:href="#a" x="226.141" y="174.445" fill="#00f"/><path d="M266.293 186.32l2.16 38.188M268.453 224.508l-15.996 10.484" stroke-width="1.2" stroke="#000" stroke-miterlimit="10" fill="none"/><path d="M252.457 234.992l-15.996 10.48" stroke-width="1.2" stroke="#00f" stroke-miterlimit="10" fill="none"/><path d="M224.46 235.973h24v19h-24zm0 0" fill="#fff"/><g fill="#00f"><use xlink:href="#a" x="224.461" y="250.824"/><use xlink:href="#b" x="236.43" y="250.824"/></g><path d="M229.984 130.906l15.996-10.484" stroke-width="1.2" stroke="#000" stroke-miterlimit="10" fill="none"/><path d="M245.98 120.422l15.997-10.48" stroke-width="1.2" stroke="#00f" stroke-miterlimit="10" fill="none"/><path d="M228.25 121.28l12.797-8.385" stroke-width="1.2" stroke="#000" stroke-miterlimit="10" fill="none"/><path d="M241.047 112.895l12.797-8.383" stroke-width="1.2" stroke="#00f" stroke-miterlimit="10" fill="none"/><path d="M195.832 113.68l34.152 17.226" stroke-width="1.2" stroke="#000" stroke-miterlimit="10" fill="none"/><path d="M261.977 109.94l-1.08-19.092" stroke-width="1.2" stroke="#00f" stroke-miterlimit="10" fill="none"/><path d="M260.898 90.848l-1.078-19.094" stroke-width="1.2" stroke="#000" stroke-miterlimit="10" fill="none"/><path d="M255.977 100.44h12v19h-12zm0 0" fill="#fff"/><use xlink:href="#a" x="255.977" y="115.293" fill="#00f"/><path d="M259.82 71.754l-17.078-8.613" stroke-width="1.2" stroke="#000" stroke-miterlimit="10" fill="none"/><path d="M242.742 63.14l-17.074-8.613" stroke-width="1.2" stroke="#00f" stroke-miterlimit="10" fill="none"/><path d="M252.352 78.066l-13.66-6.89" stroke-width="1.2" stroke="#000" stroke-miterlimit="10" fill="none"/><path d="M238.69 71.176l-13.663-6.89M225.668 54.527l-15.996 10.48" stroke-width="1.2" stroke="#00f" stroke-miterlimit="10" fill="none"/><path d="M209.672 65.008l-16 10.484" stroke-width="1.2" stroke="#000" stroke-miterlimit="10" fill="none"/><path d="M219.668 45.027h12v19h-12zm0 0" fill="#fff"/><use xlink:href="#a" x="219.668" y="59.879" fill="#00f"/><path d="M193.672 75.492l2.16 38.188M184.902 79.816l1.727 30.555M159.52 58.266l34.152 17.226M195.832 113.68l-31.992 20.965M163.84 134.645l-34.153-17.227M164.477 124.887l-27.32-13.782M129.688 117.418l-2.16-38.188M129.688 117.418L97.69 138.383M127.527 79.23l31.993-20.964M135.66 84.66l25.594-16.77M97.69 138.383l-34.15-17.227M90.227 144.695l-27.325-13.78M99.852 176.57l-2.16-38.187M63.54 121.156L31.546 142.12M31.547 142.12l2.16 38.19M40.75 145.434l1.727 30.55M33.707 180.31l34.152 17.225M67.86 197.535L99.85 176.57M66.125 187.91l25.594-16.77M99.852 176.57l34.152 17.227M134.004 193.797l17.074 8.613" stroke-width="1.2" stroke="#000" stroke-miterlimit="10" fill="none"/><path d="M151.078 202.41l17.078 8.613" stroke-width="1.2" stroke="#00f" stroke-miterlimit="10" fill="none"/><path d="M133.367 203.555l13.66 6.89" stroke-width="1.2" stroke="#000" stroke-miterlimit="10" fill="none"/><path d="M147.027 210.445l13.66 6.89" stroke-width="1.2" stroke="#00f" stroke-miterlimit="10" fill="none"/><path d="M141.473 187.484l13.66 6.89" stroke-width="1.2" stroke="#000" stroke-miterlimit="10" fill="none"/><path d="M155.133 194.375l13.66 6.89" stroke-width="1.2" stroke="#00f" stroke-miterlimit="10" fill="none"/><path d="M162.156 201.523h12v19h-12zm0 0" fill="#fff"/><use xlink:href="#a" x="162.156" y="216.375" fill="#00f"/></g></svg>
